X: 1
T: Konstan D-molli sottiisi
C: Konsta Jylh\"a
R: shottish
B: Konstan Nuottikirja
Z: 2014 John Chambers <jc:trillian.mit.edu>
M: 2/4
L: 1/16
K: Dm
|:\
"Dm"fAfA "A7"eGeG | "Dm"dFdF "C7"c2(B2 |\
"F"A2)AB [1,3 "A7"A2FE | "Dm"D2F2 A4 :|\
[2,4 "A7"A2^ca | "Dm"d2d2 d4 ::\
"Dm"((3Adfa2) "Gm"gfe2 |
| "Dm"((3Adfa2) "Gm"gfef |\
"C7"g2ga b2a"(#)"g | "F"a2a2 "A7"a4 ||\
"Dm"(Adfa) "C"g2fe | "F"f2cA "Gm"G2B2 |\
"A"A2AB "A7"A2FE | "Dm"D2[d2D2] D4 :|
